src/images/magnify.svg

<svg width="16" height="16" viewBox="0 0 16 16" fill="none" xmlns="http://www.w3.org/2000/svg">
<path fill-rule="evenodd" clip-rule="evenodd" d="M11.1111 9.77778H10.4L10.1333 9.51111C11.0222 8.53333 11.5556 7.2 11.5556 5.77778C11.5556 2.57778 8.97778 0 5.77778 0C2.57778 0 0 2.57778 0 5.77778C0 8.97778 2.57778 11.5556 5.77778 11.5556C7.2 11.5556 8.53333 11.0222 9.51111 10.1333L9.77778 10.4V11.1111L14.2222 15.5556L15.5556 14.2222L11.1111 9.77778ZM5.77778 9.77778C3.55556 9.77778 1.77778 8 1.77778 5.77778C1.77778 3.55556 3.55556 1.77778 5.77778 1.77778C8 1.77778 9.77778 3.55556 9.77778 5.77778C9.77778 8 8 9.77778 5.77778 9.77778Z" fill="#B2B2B2"/>
</svg>

<svg xmlns="http://www.w3.org/2000/svg" width="16" height="16" fill="none"><path fill="#B2B2B2" fill-rule="evenodd" d="M11.111 9.778H10.4l-.267-.267a5.564 5.564 0 0 0 1.423-3.733C11.556 2.578 8.978 0 5.778 0A5.766 5.766 0 0 0 0 5.778c0 3.2 2.578 5.778 5.778 5.778a5.564 5.564 0 0 0 3.733-1.423l.267.267v.711l4.444 4.445 1.334-1.334-4.445-4.444Zm-5.333 0c-2.222 0-4-1.778-4-4s1.778-4 4-4 4 1.778 4 4-1.778 4-4 4Z" clip-rule="evenodd"/></svg>
